X: 39922
T: Thomas Reilly, Clerk Of Fore
R: slide
M: 12/8
K: Adorian
|:[DG]|E2 A A2 B c3 B2 A|G2 A BdB A2 G E2 D|
E2 A A2 B c3 B2 A|G2 A BdB A3 A2:|
|:f|e2 d e2 f g2 a e2 d|e2 A ABA B2 G E2 D|
E2 A A2 B c3 B2 A|G2 A BdB A3 A2:|

